src/assets/images/icons/share-circle-line.svg

<svg width="24" height="24" viewBox="0 0 24 24" fill="none" xmlns="http://www.w3.org/2000/svg">
<g clip-path="url(#clip0_58_16704)">
<path d="M11 2.05V4.062C8.98271 4.31868 7.13885 5.33387 5.84319 6.90122C4.54752 8.46857 3.89728 10.4705 4.02462 12.5C4.15196 14.5296 5.04733 16.4345 6.52874 17.8276C8.01016 19.2207 9.96645 19.9975 12 20C13.9486 20 15.8302 19.2888 17.2917 18C18.7533 16.7112 19.6942 14.9333 19.938 13H21.951C21.449 18.053 17.185 22 12 22C6.477 22 2 17.523 2 12C2 6.815 5.947 2.551 11 2.05ZM20 5.414L12 13.414L10.586 12L18.586 4H14V2H22V10H20V5.414Z" fill="#181D27"/>
</g>
<defs>
<clipPath id="clip0_58_16704">
<rect width="24" height="24" fill="white"/>
</clipPath>
</defs>
</svg>

<svg xmlns="http://www.w3.org/2000/svg" width="24" height="24" fill="none" viewBox="0 0 24 24"><g clip-path="url(#a)"><path fill="#181d27" d="M11 2.05v2.012A8.001 8.001 0 0 0 12 20a8 8 0 0 0 7.938-7h2.013c-.502 5.053-4.766 9-9.951 9-5.523 0-10-4.477-10-10 0-5.185 3.947-9.449 9-9.95m9 3.364-8 8L10.586 12l8-8H14V2h8v8h-2z"/></g><defs><clipPath id="a"><path fill="#fff" d="M0 0h24v24H0z"/></clipPath></defs></svg>
